justvector/yelp.svg

<?xml version="1.0" encoding="iso-8859-1"?>
<!-- Generator: Adobe Illustrator 15.0.0, SVG Export Plug-In . SVG Version: 6.00 Build 0)  -->
<!DOCTYPE svg PUBLIC "-//W3C//DTD SVG 1.1//EN" "http://www.w3.org/Graphics/SVG/1.1/DTD/svg11.dtd">
<svg version="1.1" id="Icons" xmlns="http://www.w3.org/2000/svg" xmlns:xlink="http://www.w3.org/1999/xlink" x="0px" y="0px"
	 width="100px" height="100px" viewBox="0 0 100 100" style="enable-background:new 0 0 100 100;" xml:space="preserve">
<path id="Yelp" d="M27.749,9.099c4.539-3.568,13.266-4.59,16.857-3.894c3.594,0.692,5.471,2.702,5.494,5.15l0.207,31.21
	c0.016,2.451-1.256,4.704-2.83,5.007c-1.582,0.297-3.91-1.16-5.19-3.245L25.912,16.566C24.642,14.478,22.082,13.557,27.749,9.099z
	 M22.312,68.446l16.486-5.834c2.297-0.815,4.355-3.082,4.586-5.051c0.223-1.969-1.447-4.307-3.712-5.203l-17.415-6.906
	c-2.267-0.896-4.882,1.229-5.572,4.706c0,0-0.414,12.109,0,14.616C17.104,67.279,20.015,69.264,22.312,68.446z M51.069,71.361
	c0.048-2.458-1.264-4.579-2.916-4.73c-1.653-0.153-4.277,1.257-5.844,3.129l-11.5,13.79c-1.566,1.874-0.788,6.275,1.494,7.108
	l12.025,4.177c2.289,0.833,6.32-1.632,6.367-4.082L51.069,71.361z M79.655,68.151l-14.42-4.146
	c-2.338-0.672-4.992-0.608-5.891,0.152c-0.899,0.752-0.676,3.129,0.501,5.275l9.101,16.655c1.177,2.145,5.883,1.777,7.179-0.304
	c0,0,5.485-8.092,6.494-11.126C83.628,71.617,81.991,68.822,79.655,68.151z M83.167,44.731c-0.65-2.107-5.158-8.319-7.6-10.436
	c-2.439-2.122-5.229-1.856-6.803,0.007l-9.293,11.07c-1.574,1.863-1.995,4.818-0.945,6.555c1.049,1.737,3.848,2.722,6.223,2.188
	l16.074-2.98C83.724,50.439,83.827,46.838,83.167,44.731z"/>
</svg>

<?xml version="1.0" encoding="UTF-8" standalone="no"?>
<!DOCTYPE svg PUBLIC "-//W3C//DTD SVG 1.1//EN" "http://www.w3.org/Graphics/SVG/1.1/DTD/svg11.dtd">
<svg width="100%" height="100%" viewBox="0 0 100 100" version="1.1" xmlns="http://www.w3.org/2000/svg" xmlns:xlink="http://www.w3.org/1999/xlink" xml:space="preserve" xmlns:serif="http://www.serif.com/" style="fill-rule:evenodd;clip-rule:evenodd;stroke-linejoin:round;stroke-miterlimit:2;">
    <path id="Yelp" d="M27.749,9.099C32.288,5.531 41.015,4.509 44.606,5.205C48.2,5.897 50.077,7.907 50.1,10.355L50.307,41.565C50.323,44.016 49.051,46.269 47.477,46.572C45.895,46.869 43.567,45.412 42.287,43.327L25.912,16.566C24.642,14.478 22.082,13.557 27.749,9.099ZM22.312,68.446L38.798,62.612C41.095,61.797 43.153,59.53 43.384,57.561C43.607,55.592 41.937,53.254 39.672,52.358L22.257,45.452C19.99,44.556 17.375,46.681 16.685,50.158C16.685,50.158 16.271,62.267 16.685,64.774C17.104,67.279 20.015,69.264 22.312,68.446ZM51.069,71.361C51.117,68.903 49.805,66.782 48.153,66.631C46.5,66.478 43.876,67.888 42.309,69.76L30.809,83.55C29.243,85.424 30.021,89.825 32.303,90.658L44.328,94.835C46.617,95.668 50.648,93.203 50.695,90.753L51.069,71.361ZM79.655,68.151L65.235,64.005C62.897,63.333 60.243,63.397 59.344,64.157C58.445,64.909 58.668,67.286 59.845,69.432L68.946,86.087C70.123,88.232 74.829,87.864 76.125,85.783C76.125,85.783 81.61,77.691 82.619,74.657C83.628,71.617 81.991,68.822 79.655,68.151ZM83.167,44.731C82.517,42.624 78.009,36.412 75.567,34.295C73.128,32.173 70.338,32.439 68.764,34.302L59.471,45.372C57.897,47.235 57.476,50.19 58.526,51.927C59.575,53.664 62.374,54.649 64.749,54.115L80.823,51.135C83.724,50.439 83.827,46.838 83.167,44.731Z" style="fill:rgb(255,0,0);fill-rule:nonzero;"/>
</svg>
